static/assets/img/icons/theme/home/building.svg

<svg height="24" viewBox="0 0 24 24" width="24" xmlns="http://www.w3.org/2000/svg"><g fill="none" fill-rule="evenodd"><path d="m0 0h24v24h-24z" opacity="0"/><path d="m13.5 21v-3c0-.5522847-.4477153-1-1-1h-1c-.5522847 0-1 .4477153-1 1v3h-5.5v-17c0-1.1045695.8954305-2 2-2h10c1.1045695 0 2 .8954305 2 2v17zm-4.5-17c-.55228475 0-1 .44771525-1 1v1c0 .55228475.44771525 1 1 1h1c.5522847 0 1-.44771525 1-1v-1c0-.55228475-.4477153-1-1-1zm5 0c-.5522847 0-1 .44771525-1 1v1c0 .55228475.4477153 1 1 1h1c.5522847 0 1-.44771525 1-1v-1c0-.55228475-.4477153-1-1-1zm-5 4c-.55228475 0-1 .44771525-1 1v1c0 .5522847.44771525 1 1 1h1c.5522847 0 1-.4477153 1-1v-1c0-.55228475-.4477153-1-1-1zm0 4c-.55228475 0-1 .4477153-1 1v1c0 .5522847.44771525 1 1 1h1c.5522847 0 1-.4477153 1-1v-1c0-.5522847-.4477153-1-1-1zm5 0c-.5522847 0-1 .4477153-1 1v1c0 .5522847.4477153 1 1 1h1c.5522847 0 1-.4477153 1-1v-1c0-.5522847-.4477153-1-1-1z" fill="#000"/><rect fill="#fff" height="3" rx="1" width="3" x="13" y="8"/><path d="m4 21h16c.5522847 0 1 .4477153 1 1v.4c0 .3313708-.2686292.6-.6.6h-16.8c-.33137085 0-.6-.2686292-.6-.6v-.4c0-.5522847.44771525-1 1-1z" fill="#000" opacity=".3"/></g></svg>

<svg width="24px" height="24px" viewBox="0 0 24 24" version="1.1" xmlns="http://www.w3.org/2000/svg" xmlns:xlink="http://www.w3.org/1999/xlink">
    <title>Icon For Building</title>
    <g stroke="none" stroke-width="1" fill="none" fill-rule="evenodd">
        <rect opacity="0" x="0" y="0" width="24" height="24"></rect>
        <path d="M13.5,21 L13.5,18 C13.5,17.4477153 13.0522847,17 12.5,17 L11.5,17 C10.9477153,17 10.5,17.4477153 10.5,18 L10.5,21 L5,21 L5,4 C5,2.8954305 5.8954305,2 7,2 L17,2 C18.1045695,2 19,2.8954305 19,4 L19,21 L13.5,21 Z M9,4 C8.44771525,4 8,4.44771525 8,5 L8,6 C8,6.55228475 8.44771525,7 9,7 L10,7 C10.5522847,7 11,6.55228475 11,6 L11,5 C11,4.44771525 10.5522847,4 10,4 L9,4 Z M14,4 C13.4477153,4 13,4.44771525 13,5 L13,6 C13,6.55228475 13.4477153,7 14,7 L15,7 C15.5522847,7 16,6.55228475 16,6 L16,5 C16,4.44771525 15.5522847,4 15,4 L14,4 Z M9,8 C8.44771525,8 8,8.44771525 8,9 L8,10 C8,10.5522847 8.44771525,11 9,11 L10,11 C10.5522847,11 11,10.5522847 11,10 L11,9 C11,8.44771525 10.5522847,8 10,8 L9,8 Z M9,12 C8.44771525,12 8,12.4477153 8,13 L8,14 C8,14.5522847 8.44771525,15 9,15 L10,15 C10.5522847,15 11,14.5522847 11,14 L11,13 C11,12.4477153 10.5522847,12 10,12 L9,12 Z M14,12 C13.4477153,12 13,12.4477153 13,13 L13,14 C13,14.5522847 13.4477153,15 14,15 L15,15 C15.5522847,15 16,14.5522847 16,14 L16,13 C16,12.4477153 15.5522847,12 15,12 L14,12 Z" fill="#000000"></path>
        <rect fill="#FFFFFF" x="13" y="8" width="3" height="3" rx="1"></rect>
        <path d="M4,21 L20,21 C20.5522847,21 21,21.4477153 21,22 L21,22.4 C21,22.7313708 20.7313708,23 20.4,23 L3.6,23 C3.26862915,23 3,22.7313708 3,22.4 L3,22 C3,21.4477153 3.44771525,21 4,21 Z" fill="#000000" opacity="0.3"></path>
    </g>
</svg>
